X: 5
T: The Centenary March
R: barndance
M: 4/4
L: 1/8
K: Dmaj
DF | A2 A>B | AF ED |f2 f>d | ed B/c/d/B/ |
A2 A>B | AF ED | E2 E>F | E2 DF |
A2 A>B | AF ED | f2 f>d | ed B/c/d/B/ |
A2 d>e | fe dc | d2 d>c | d2 Ad |]
f3 a | Ad fa |g2 f2 | e2 f>g |
af dA | FA GF |E2 E>F | E2 F>G |
AD FA | dA de |fa gf | ed cB |
Aa ^ga | ge ce |d2 d>c | d2 |]


Tune 3655	Setting 16661

